static/icons/edit.svg

<svg width="24" height="24" viewBox="0 0 24 24" fill="none" xmlns="http://www.w3.org/2000/svg">
<path fill-rule="evenodd" clip-rule="evenodd" d="M5.08999 18H4.99999C4.86838 18.0007 4.73792 17.9755 4.61609 17.9258C4.49425 17.876 4.38343 17.8027 4.28999 17.71C4.18579 17.6062 4.10578 17.4806 4.05565 17.3424C4.00553 17.2041 3.98652 17.0564 3.99999 16.91L4.42999 12.74C4.4755 12.2832 4.67676 11.8559 4.99999 11.53L14 2.52998C14.3748 2.21335 14.8529 2.04553 15.3433 2.05843C15.8338 2.07134 16.3024 2.26408 16.66 2.59998L19.4 5.33998C19.7679 5.69049 19.9818 6.17254 19.995 6.68052C20.0081 7.18849 19.8193 7.68095 19.47 8.04998L10.47 17.05C10.144 17.3732 9.71679 17.5745 9.25999 17.62L5.08999 18ZM18 6.72998L15.27 3.99998L13.32 5.99998L16 8.67998L18 6.72998ZM12 7.31998L6.36999 12.91L6.09999 15.9L9.09999 15.62L14.7 10.02L12 7.31998Z" fill="black"/>
<path d="M5 20H19C19.2652 20 19.5196 20.1054 19.7071 20.2929C19.8946 20.4804 20 20.7348 20 21C20 21.2652 19.8946 21.5196 19.7071 21.7071C19.5196 21.8946 19.2652 22 19 22H5C4.73478 22 4.48043 21.8946 4.29289 21.7071C4.10536 21.5196 4 21.2652 4 21C4 20.7348 4.10536 20.4804 4.29289 20.2929C4.48043 20.1054 4.73478 20 5 20Z" fill="black"/>
</svg>

<svg xmlns="http://www.w3.org/2000/svg" width="24" height="24" fill="none"><path fill="#000" fill-rule="evenodd" d="M5.09 18H5a1.002 1.002 0 0 1-.944-.658A1 1 0 0 1 4 16.91l.43-4.17A2 2 0 0 1 5 11.53l9-9a2 2 0 0 1 2.66.07l2.74 2.74a1.92 1.92 0 0 1 .07 2.71l-9 9a2 2 0 0 1-1.21.57L5.09 18ZM18 6.73 15.27 4l-1.95 2L16 8.68l2-1.95Zm-6 .59-5.63 5.59-.27 2.99 3-.28 5.6-5.6-2.7-2.7Z" clip-rule="evenodd"/><path fill="#000" d="M5 20h14a1 1 0 0 1 0 2H5a1 1 0 0 1 0-2Z"/></svg>
